icons/mobile/24/svg/golf-24.svg

<svg width="24" height="24" viewBox="0 0 24 24" fill="none" xmlns="http://www.w3.org/2000/svg">
<path d="M12.5674 18C14.027 18.008 15.2707 18.2438 16.2246 18.5098C16.6876 18.6388 16.9999 19.0669 17 19.5469C17 20.1429 16.5169 20.626 15.9209 20.626H13.75V22.251C13.75 22.665 13.414 23.001 13 23.001H12C11.586 23.001 11.25 22.665 11.25 22.251V20.626H9.0791C8.4831 20.626 8 20.1429 8 19.5469C8.00007 19.0659 8.31244 18.6388 8.77539 18.5098C9.75434 18.2368 11.0466 17.993 12.5674 18Z" fill="black"/>
<path d="M10.665 8.75C11.2864 8.75 11.79 9.25368 11.79 9.875C11.79 10.4963 11.2864 11 10.665 11C10.0437 11 9.54004 10.4963 9.54004 9.875C9.54004 9.25368 10.0437 8.75 10.665 8.75Z" fill="black"/>
<path d="M14.415 8.75C15.0364 8.75 15.54 9.25368 15.54 9.875C15.54 10.4963 15.0364 11 14.415 11C13.7937 11 13.29 10.4963 13.29 9.875C13.29 9.25368 13.7937 8.75 14.415 8.75Z" fill="black"/>
<path d="M12.54 6C13.1614 6 13.665 6.50368 13.665 7.125C13.665 7.74632 13.1614 8.25 12.54 8.25C11.9187 8.25 11.415 7.74632 11.415 7.125C11.415 6.50368 11.9187 6 12.54 6Z" fill="black"/>
<path fill-rule="evenodd" clip-rule="evenodd" d="M12.54 2.5C16.406 2.5 19.54 5.63401 19.54 9.5C19.54 13.366 16.406 16.5 12.54 16.5C8.67405 16.5 5.54004 13.366 5.54004 9.5C5.54004 5.63401 8.67405 2.5 12.54 2.5ZM12.54 4.25C9.64054 4.25 7.29004 6.60051 7.29004 9.5C7.29004 12.3995 9.64054 14.75 12.54 14.75C15.4395 14.75 17.79 12.3995 17.79 9.5C17.79 6.60051 15.4395 4.25 12.54 4.25Z" fill="black"/>
</svg>

<!-- This Source Code Form is subject to the terms of the Mozilla Public
   - License, v. 2.0. If a copy of the MPL was not distributed with this
   - file, You can obtain one at http://mozilla.org/MPL/2.0/. -->
<svg xmlns="http://www.w3.org/2000/svg" width="24" height="24" fill="none" viewBox="0 0 24 24">
    <path fill="#000" d="M12.567 18a14 14 0 0 1 3.658.51c.463.129.775.557.775 1.037a1.08 1.08 0 0 1-1.08 1.079h-2.17v1.625a.75.75 0 0 1-.75.75h-1a.75.75 0 0 1-.75-.75v-1.625H9.08A1.08 1.08 0 0 1 8 19.546c0-.48.312-.907.775-1.036a14 14 0 0 1 3.792-.51m-1.902-9.25a1.125 1.125 0 1 1 0 2.25 1.125 1.125 0 0 1 0-2.25m3.75 0a1.125 1.125 0 1 1 0 2.25 1.125 1.125 0 0 1 0-2.25M12.54 6a1.125 1.125 0 1 1 0 2.25 1.125 1.125 0 0 1 0-2.25" />
    <path fill="#000" fill-rule="evenodd" d="M12.54 2.5a7 7 0 1 1 0 14 7 7 0 0 1 0-14m0 1.75a5.25 5.25 0 1 0 0 10.5 5.25 5.25 0 0 0 0-10.5" clip-rule="evenodd" />
</svg>
